X: 41144
T: Trip We Took Over The Mountain, The
R: waltz
M: 3/4
K: Gmajor
G3/4F/4|:DG G3/4A/4|BGG|AGA|f3/2 g/ a3/4f/4|
gd d3/4e/4|d c3/4B/4 A|G3/2 B/ A3/4G/4|F3/2 A/ G3/4F/4|
DG G3/4A/4|BGG|AGA|f3/2 g/ a3/4f/4|
g3/2 f/ d3/4B/4|cAd|G3/2 B/ A3/4F/4|1 G2 G3/4F/4:|2 G2||
* g3/4f/4|gd g3/4f/4|g a3/2 g/|fde|f3/2 g/ a3/4f/4|
gd d3/4e/4|d c3/4B/4 A|G3/2 B/ A3/4G/4|F2 g3/4f/4|
gd g3/4f/4|g a3/2 g/|fde|f3/2 g/ a3/4f/4|
g3/4 f/ d3/4B/4|cAd|G3/2 B/ A3/4F/|G2||

